X: 23174
T: Le Reel à Mon Père
R: reel
M: 4/4
K: Gmajor
B/c/d|:g2B2- BcBA|GB{c}BA d3B|c2cA B2BG|ABAF GABG|
AB{c}BA BcdB|GB{c}BA d3B|c2cA B2BG|1 ABAF GAB/c/d:|2 ABAF G3B||
|:d2ed B2gg|fgag (3fgf e2|ABcd ~e3e|dcBc d3B|
d2ed B2gg|fgag (3fgf e2|ABcd ~e3e|1 dcBA GABc:|2 dcBA GAB/c/d||

